X: 4
T: The Wheels Of The World
R: reel
M: 4/4
L: 1/8
K: Dmix
dD (3DDD ADGF|EC (3CCC EFGB|AD (3FED FAde|=fedc ABcB|
AD (3DDD FAGF|ECCD EFGB|A2dB cBAG|EDCE D3^c|
dD (3DDD F2AG|EC~C2 G,CEG|AD (3FED FAde|=fedc ABcB|
AD (3DDD FGAG|EC (3CCC EFGB|A2dB cBAG|EDCD EDD2||
~d3f afdf|ecgc acgc|~d3f afdf|ed^ce dcAc|
~d3f afdf|ecgc acgc|eaag efge|fage d4|
~c3e gece|~d2ad bdad|~c3e gecd|eaag egdB|
~c3e gece|~d2ad bdad|eaag efge|aged ^cABc||


Tune 1010	Setting 1010

